!!!COM: Beethoven, Ludwig van
!!!CDT: 1770///-1827///
!!!OTL: Piano Sonata no. 12 in A-flat major
!!!OTP: funeral march
!!!OPS: 26
!!!OMV: 4
!!!OMD: Allegro
!!!ONB: Rondo
**kern	**kern	**dynam
*staff2	*staff1	*staff1/2
*Ipiano	*Ipiano	*Ipiano
*>[A,B,B1,B,B2,C]	*>[A,B,B1,B,B2,C]	*>[A,B,B1,B,B2,C]
*>norep[A,B,B2,C]	*>norep[A,B,B2,C]	*>norep[A,B,B2,C]
*>A	*>A	*>A
*clefF4	*clefG2	*clefG2
*k[b-e-a-d-]	*k[b-e-a-d-]	*k[b-e-a-d-]
*A-:	*A-:	*A-:
*M2/4	*M2/4	*M2/4
*MM120	*MM120	*MM120
4r	(16ee-LL	p
.	16cc	.
.	16ff	.
.	16anJJ	.
=1	=1	=1
2r	16dd-LL	.
.	16b-	.
.	16ee-	.
.	16gJJ	.
.	16ccLL<	.
.	16a-X	.
.	16dd-	.
.	16fJJ	.
=2	=2	=2
2r	16b-LL<	.
.	16g	.
.	16cc	.
.	16enJJ	.
.	16a-LL<	.
.	16f	.
.	16b-	.
.	16dnJJ)	.
=3	=3	=3
*^	*	*
4r	[2E-	16gLL	.
.	.	16e-X	.
.	.	16dn	.
.	.	16e-JJ	.
(8d-XL	.	16gLL	.
.	.	16e-	.
8cJ	.	16a-	.
.	.	16e-JJ	.
=4	=4	=4	=4
8B-L	2E-]	16b-LL	.
.	.	16e-	.
8A-	.	16cc	.
.	.	16e-JJ	.
8G	.	16dd-LL	.
.	.	16e-	.
8FJ	.	16ddn	.
.	.	16e-JJ	.
*v	*v	*	*
!!LO:LB:g=original
=5	=5	=5
8E-L	16ee-LL	.
.	16e-	.
8D-	16g 16ee-	.
.	16e-JJ	.
8C	16a- 16ee-LL	.
.	16e-	.
8AA-J)	16a- 16cc 16ee-	.
.	16e-JJ	.
=6	=6	=6
8E-'L	16g 16b- 16ee-LL	.
.	16e-	.
8EE-'J	16g 16b- 16ee-	.
.	16e-JJ	.
(16e-LL	(16ccLL	.
16c	16ee-	.
16f	16an	.
16AnJJ	16ffJJ	.
=7	=7	=7
16d-LL	16b-LL	.
16B-	16dd-	.
16e-	16g	.
16GJJ	16ee-JJ	.
16cLL	16a-XLL<	.
16A-X	16cc	.
16d-	16f	.
16FJJ	16dd-JJ	.
=8	=8	=8
16B-LL	16gLL<	.
16G	16b-	.
16cn	16en	.
16EnJJ	16ccJJ	.
16A-LL	16fLL<	.
16F	16a-	.
16B-	16dn	.
16DnJJ	16b-JJ	.
=9	=9	=9
16GLL)	8e-)	.
16E-X	.	.
16Dn	8r	.
16E-JJ	.	.
16GLL	8dd-X (8ddd-XL	.
16E-	.	.
16A-	8cc 8cccJ	.
16E-JJ	.	.
!!LO:LB:g=original
=10	=10	=10
16B-LL	8b- 8bb-L	.
16E-	.	.
16c	8a- 8aa-	.
16E-JJ	.	.
16d-LL	8g 8gg	.
16E-	.	.
16dn	8f 8ffJ)	.
16E-JJ	.	.
=11	=11	=11
16e-LL	8ee-'L	.
16E-	.	.
16e-	8a-' 8cc' 8ee-'	.
16E-JJ	.	.
16e-LL	8b-' 8dd-' 8ee-'	.
16E-	.	.
16e-	8g' 8b-' 8ee-'J	.
16E-JJ	.	.
=12	=12	=12
8A-'L	8a-' 8cc' 8ee-'	.
8AA-'J	8r	.
(8B-L	16cLL	.
.	16cc	.
8GJ	16en	.
.	16ccJJ	.
=13	=13	=13
8EnL	16gLL	.
.	16cc	.
8C	16bn	.
.	16ccJJ	.
8Dn	16b-LL	.
.	16cc	.
8EJ	16g	.
.	16ccJJ	.
=14	=14	=14
8FL	16a-LL<	.
.	16cc	.
8A-J)	16f	.
.	16ccJJ	.
16BB-LL	(8aa-L	.
16B-	.	.
16Dn	8ffJ	.
16B-JJ	.	.
!!LO:LB:g=original
=15	=15	=15
16FLL	8ddnL	.
16Bn	.	.
16An	8b-	.
16B-JJ	.	.
16A-LL	8cc	.
16B-	.	.
16F	8ddJ	.
16B-JJ	.	.
=16	=16	=16
16GLL	8ee-L	.
16B-	.	.
16E-	8ggJ)	.
16B-JJ	.	.
(8d-X\L	16e-LL	.
.	16ee-	.
8B-J	16g	.
.	16ee-JJ	.
=17	=17	=17
8GL	16b-LL	.
.	16ee-	.
8E-	16ddn	.
.	16ee-JJ	.
8F	16dd-LL	.
.	16ee-	.
8GJ)	16b-	.
.	16ee-JJ	.
=18	=18	=18
(8A-L<	16ccLL	.
.	16ee-	.
8AA-	16e- 16cc	.
.	16ee-JJ	.
8BB-	16g 16dd-LL	.
.	16ee-	.
8CJ	16a- 16cc	.
.	16ee-JJ	.
=19	=19	=19
8D-L<	16f 16ccLL	.
.	16ee-	.
8BB-	16f 16b-	.
.	16dd-JJ	.
8E-	16e- 16a-LL	.
.	16cc	.
8EE-J)	16d- 16g	.
.	16b-JJ	.
!!LO:LB:g=original
=20	=20	=20
8AA-L	8c' 8a-'	.
8AAA-J	8r	.
16CLL	8b- (8bb-L	.
16c	.	.
16En	8g 8ggJ	.
16cJJ	.	.
=21	=21	=21
16GLL	8en 8eenL	.
16c	.	.
16Bn	8ccJ	.
16cJJ	.	.
16B-LL	8dn 8ddnL<	.
16c	.	.
16G	8e 8eeJ	.
16cJJ	.	.
=22	=22	=22
16A-LL	8f 8ffL	.
16c	.	.
16F	8a- 8aa-J)	.
16cJJ	.	.
(8a-L	16b-LL	.
.	16bb-	.
8fJ	16ddn	.
.	16bb-JJ	.
=23	=23	=23
8dnL	16ffLL	.
.	16bb-	.
8B-	16aan	.
.	16bb-JJ	.
8c	16aa-LL	.
.	16bb-	.
8dJ	16ff	.
.	16bb-JJ	.
=24	=24	=24
8e-L	16ggLL	.
.	16bb-	.
8gJ)	16ee-	.
.	16bb-JJ	.
16EE-LL	(8dd-X 8ddd-XL	<
16E-	.	.
16GG	8b- 8bb-J	.
16E-JJ	.	.
!!LO:LB:g=original
=25	=25	=25
16BB-LL	8g 8ggL	.
16E-	.	.
16Dn	8e- 8ee-J	.
16E-JJ	.	.
16D-LL	8f 8ffL	.
16E-	.	.
16BB-	8g 8ggJ	.
16E-JJ	.	.
=26	=26	=26
16CLL	8a- 8aa-)	.
16E-	.	.
16AA-	16ee- 16aa- 16cccLL	f
16A-JJ	16eee-JJ	.
16GGLL	16ee- 16bb- 16ddd-LL	.
16G	16eee-	.
16AA-	16ee- 16aa- 16ccc	.
16A-JJ	16eee-JJ	.
=27	=27	=27
16FFLL	16ee- 16cccLL	.
16F	16eee-	.
16DD-	16dd- 16bb-	.
16D-JJ	16ddd-JJ	.
16EE-LL	16cc 16aa-LL	.
16E-	16ccc	.
16EE-	16b- 16gg	.
16E-JJ	16bb-JJ	.
=28	=28	=28
8AAA-'L	8a- 8aa-	.
8AA-'J	8r	.
(16cLL	4r	p
16A-	.	.
16d-	.	.
16FJJ	.	.
=29	=29	=29
16B-LL	2r	.
16G	.	.
16c	.	.
16EnJJ	.	.
16A-LL	.	.
16F	.	.
16B-	.	.
16DnJJ)	.	.
!!LO:LB:g=original
=30	=30	=30
8E-' 8G'	8r	.
8r	8g' 8b-' 8ee-' 8gg'	sf
(16e-LL	(16ggLL	.
16g	16ee-	.
16c	16aa-	.
16a-JJ	16ccJJ	.
=31	=31	=31
16dnLL	16ffLL	.
16f	16ddn	.
16Bn	16gg	.
16gJJ	16bnJJ	.
16cLL	16ee-LL	.
16e-	16cc	.
16An	16ff	.
16fJJ)	16anJJ)	.
=32	=32	=32
8B-X'L	8ddn'L	.
8BB-' 8B-'J	8b-X' 8dd' 8ff' 8bb-'J	p
16A-XLL	8r	.
16B-	.	.
16F	8b-' 8bb-'	.
16dnJJ	.	.
=33	=33	=33
16A-LL	8r	.
16B-	.	.
16F	8ddn' 8dddn'	.
16dnJJ	.	.
16A-LL	8r	.
16B-	.	.
16F	8ff' 8fff'	.
16dJJ	.	.
=34	=34	=34
16A-LL	8ddn' 8dddn'L	.
16B-	.	.
16F	8b-' 8bb-'J	.
16dnJJ	.	.
16A-LL	8r	.
16B-	.	.
16F	8b-' 8bb-'	.
16dJJ	.	.
=35	=35	=35
16A-LL	8r	.
16B-	.	.
16F	8ddn' 8dddn'	.
16dnJJ	.	.
16A-LL	8r	.
16B-	.	.
16F	8ff' 8fff'	.
16dJJ	.	.
!!LO:LB:g=original
=36	=36	=36
16A-LL	8ddn' 8dddn'L	.
16B-	.	.
16F	8b-' 8bb-'J	.
16dnJJ	.	.
8r	(16aa-LL	.
.	16ff	.
8BB-' 8B-'	16bb-	.
.	16ddnJJ	.
=37	=37	=37
8r	16aa-LL	.
.	16ff	.
8Dn' 8dn'	16bb-	.
.	16ddnJJ	.
8r	16aa-LL	.
.	16ff	.
8F' 8f'	16bb-	.
.	16ddJJ	.
=38	=38	=38
8Dn' 8dn'L	16aa-LL	.
.	16ff	.
8BB-' 8B-'J	16bb-	.
.	16ddnJJ	.
8r	16aa-LL	<
.	16ff	.
8BBB- 8BB-	16bb-	.
.	16ddJJ	.
=39	=39	=39
8r	16aa-LL	.
.	16ff	.
8DDn' 8Dn'	16bb-	.
.	16ddnJJ	.
8r	16aa-LL	.
.	16ff	.
8FF' 8F'	16ccc	.
.	16ddJJ	.
=40	=40	=40
8DDn' 8Dn'L	16aa-LL	.
.	16ff	.
8BBB-' 8BB-'J	16bb-	.
.	16ddnJJ	.
8r	16aa-LL	.
.	16ff	.
8F' 8f'	16bb-	.
.	16ddJJ	.
=41	=41	=41
8Dn' 8dn'L	16aa-LL	.
.	16ff	.
8BB-' 8B-'J	16bb-	.
.	16ddnJJ	.
8r	16aa-LL	.
.	16ff	.
8BBB-' 8BB-'	16bb-	.
.	16ddJJ)	.
!!LO:LB:g=original
=42	=42	=42
8EE-' 8E-'	8gg'L	.
(4.GGG 4.GG	(16ee-L	sf
.	16ddnJJ	.
.	16ccLL	.
.	16b-	.
.	16a-	.
.	16gJJ	.
=43	=43	=43
4AAA- 4AA-	16fLL	.
.	16e-	.
.	16dn	.
.	16cJJ	.
4BBB- 4BB-)	16B-LL	.
.	16A-	.
.	16G	.
.	16FJJ	.
=44	=44	=44
8CC' 8C'	8E-')	.
(4.GGG 4.GG	(16ggLL	sf
.	16ffJJ	.
.	24ee-LL	.
.	24ddn	.
.	24cc	.
.	24b-	.
.	24a-	.
.	24gJJ	.
=45	=45	=45
4AAA- 4AA-	16fLL	.
.	16e-	.
.	16dn	.
.	16cJJ	.
4BBB- 4BB-)	16B-LL	.
.	16A-	.
.	16G	.
.	16FJJ	.
=46	=46	=46
8CC' 8C'	8E-')	sf
(4.GGGz 4.GGz	(16bb-LL	ff
.	16aa-JJ	.
.	32ggLLL	.
.	32ff	.
.	32ee-	.
.	32ddn	.
.	32cc	.
.	32b-	.
.	32a-	.
.	32gJJJ	.
=47	=47	=47
4AAA- 4AA-	16fLL	.
.	16e-	.
.	16dn	.
.	16cJJ	.
4BBB- 4BB-)	16B-LL	.
.	16A-	.
.	16G	.
.	16FJJ	.
!!LO:LB:g=original
=48	=48	=48
*^	*	*
(8EE-	2EE-	8E-)	.
4.E-)	.	8r	.
.	.	(16gLL	p
.	.	16e-	.
.	.	16a-	.
.	.	16fJJ)	.
=49	=49	=49	=49
(8EE-	2EE-	4r	.
4.E-)	.	.	.
.	.	(16b-LL<	.
.	.	16g	.
.	.	16cc	.
.	.	16a-JJ)	.
=50	=50	=50	=50
(8EE-	[2EE-	4r	.
[4.E-)	.	.	.
.	.	(16dd-XLL	.
.	.	16b-	.
.	.	16ddn	.
.	.	16bnJJ	.
*v	*v	*	*
=51	=51	=51
2EE-_ 2E-_	16ee-LL	.
.	16cc	.
.	16ddn	.
.	16bnJJ	.
.	16ee-LL	<
.	16cc	.
.	16dd	.
.	16bJJ	.
=52	=52	=52
2EE-_ 2E-_	16ee-LL	.
.	16cc	.
.	16ddn	.
.	16bnJJ	.
.	16ee-LL	p
.	16cc	.
.	16ff	.
.	16anJJ	.
=53	=53	=53
2EE-_ 2E-_	16dd-XLL	.
.	16b-X	.
.	16ee-	.
.	16gJJ	.
.	16ccLL<	.
.	16a-X	.
.	16dd-	.
.	16fJJ	.
!!LO:LB:g=original
=54	=54	=54
2EE-] 2E-]	16b-LL	.
.	16g	.
.	16cc	.
.	16enJJ	.
.	16a-LL	.
.	16f	.
.	16b-	.
.	16dnJJ)	.
=55	=55	=55
*^	*	*
4r	[2E-	16gLL	.
.	.	16e-X	.
.	.	16dn	.
.	.	16e-JJ	.
(8d-XL	.	16gLL	.
.	.	16e-	.
8cJ	.	16a-	.
.	.	16e-JJ	.
=56	=56	=56	=56
8B-L	2E-]	16b-LL	<
.	.	16e-	.
8A-	.	16cc	.
.	.	16e-JJ	.
8G	.	16dd-LL	.
.	.	16e-	.
8FJ	.	16ddn	.
.	.	16e-JJ	.
*v	*v	*	*
=57	=57	=57
8E-L	16ee-LL	.
.	16e-	.
8D-	16g 16ee-	.
.	16e-JJ	.
8C	16a- 16ee-LL	.
.	16e-	.
8AA-J)	16a- 16cc 16ee-	.
.	16e-JJ	.
=58	=58	=58
8E-'L	16g 16b- 16ee-LL	.
.	16e-	.
8EE-'J	16g 16b- 16ee-	.
.	16e-JJ	.
(16e-LL	(16ccLL	p
16c	16ee-	.
16f	16an	.
16AnJJ	16ffJJ	.
!!LO:LB:g=original
=59	=59	=59
16d-LL	16b-LL	.
16B-	16dd-	.
16e-	16g	.
16GJJ	16ee-JJ	.
16cLL	16a-XLL<	.
16A-X	16cc	.
16d-	16f	.
16FJJ	16dd-JJ	.
=60	=60	=60
16B-LL	16gLL<	.
16G	16b-	.
16c	16en	.
16EnJJ	16ccJJ	.
16A-LL	16fLL<	.
16F	16a-	.
16B-	16dn	.
16DnJJ	16b-JJ	.
=61	=61	=61
16GLL)	8e-)	.
16E-X	.	.
16Dn	8r	.
16E-JJ	.	.
16GLL	8dd-X (8ddd-XL	.
16E-	.	.
16A-	8cc 8cccJ	.
16E-JJ	.	.
=62	=62	=62
16B-LL	8b- 8bb-L	<
16E-	.	.
16c	8a- 8aa-	.
16E-JJ	.	.
16d-LL	8g 8gg	.
16E-	.	.
16dn	8f 8ffJ)	.
16E-JJ	.	.
=63	=63	=63
16e-LL	8ee-'L	.
16E-	.	.
16e-	8a-' 8cc' 8ee-'	.
16E-JJ	.	.
16e-LL	8b-' 8dd-' 8ee-'	.
16E-	.	.
16e-	8g' 8b-' 8ee-'J	.
16E-JJ	.	.
=64	=64	=64
8A-'L	8a- 8cc 8ee-	.
8AA-'J	8r	.
(8B-L	16cLL<	.
.	16cc	.
8GJ	16en	.
.	16ccJJ	.
!!LO:LB:g=original
=65	=65	=65
8EnL	16gLL	.
.	16cc	.
8C	16bn	.
.	16ccJJ	.
8Dn	16b-LL	.
.	16cc	.
8EJ	16g	.
.	16ccJJ	.
=66	=66	=66
8FL	16a-LL<	.
.	16cc	.
8A-J)	16f	.
.	16ccJJ	.
16BB-LL	(8aa-L	.
16B-	.	.
16Dn	8ffJ	.
16B-JJ	.	.
=67	=67	=67
16FLL	8ddnL	.
16B-	.	.
16An	8b-	.
16B-JJ	.	.
16A-LL	8cc	.
16B-	.	.
16F	8ddJ	.
16B-JJ	.	.
=68	=68	=68
16GLL	8ee-L	.
16B-	.	.
16E-	8ggJ)	.
16B-JJ	.	.
(8d-XL	16e-LL	.
.	16ee-	.
8B-J	16g	.
.	16ee-JJ	.
=69	=69	=69
8GL	16b-LL	.
.	16ee-	.
8E-	16ddn	.
.	16ee-JJ	.
8F	16dd-LL	.
.	16ee-	.
8GJ	16b-	.
.	16ee-JJ	.
=70	=70	=70
8A-L<	16ccLL	.
.	16ee-	.
8AA-	16e- 16cc	.
.	16ee-JJ	.
8BB-	16g 16dd-LL	.
.	16ee-	.
8CJ	16a- 16cc	.
.	16ee-JJ	.
!!LO:LB:g=original
=71	=71	=71
8D-L<	16f 16ccLL	.
.	16ee-	.
8BB-	16f 16b-	.
.	16dd-JJ	.
8E-	16e- 16a-LL	.
.	16cc	.
8EE-J)	16d- 16g	.
.	16b-JJ	.
=72	=72	=72
8AA-'L	8c 8a-	.
8AAA-'J	8r	.
16CLL	8b- (8bb-L	.
16c	.	.
16En	8g 8ggJ	.
16cJJ	.	.
=73	=73	=73
16GLL	8en 8eenL<	.
16c	.	.
16Bn	8cc	.
16cJJ	.	.
16B-LL	8dn 8ddn	.
16c	.	.
16G	8e 8eeJ	.
16cJJ	.	.
=74	=74	=74
16A-LL	8f 8ffL	.
16c	.	.
16F	8a- 8aa-J)	.
16cJJ	.	.
*clefG2	*	*
(8a-^L	16b-LL	.
.	16bb-	.
8fJ	16ddn	.
.	16bb-JJ	.
=75	=75	=75
8dnL	16ffLL	.
.	16bb-	.
8B-	16aan	.
.	16bb-JJ	.
8c	16aa-LL	.
.	16bb-	.
8dJ	16ff	.
.	16bb-JJ	.
=76	=76	=76
8e-L	16ggLL	.
.	16bb-	.
8gJ)	16ee-	.
.	16bb-JJ	.
*clefF4	*	*
16EE-LL	(8dd-X 8ddd-XL	<
16E-	.	.
16GG	8b- 8bb-J	.
16E-JJ	.	.
!!LO:LB:g=original
=77	=77	=77
16BB-LL	8g 8ggL	.
16E-	.	.
16Dn	8e- 8ee-	.
16E-JJ	.	.
16D-LL	8f 8ff	.
16E-	.	.
16BB-	8g 8ggJ	.
16E-JJ	.	.
=78	=78	=78
16CLL	8a- 8aa-)	.
16E-	.	.
16AA-	16ee- 16aa- 16cccLL	f
16A-JJ	16eee-JJ	.
16GGLL	16ee- 16bb- 16eee-LL	.
16G	16eee-	.
16AA-	16ee- 16aa- 16ccc	.
16A-JJ	16eee-JJ	.
=79	=79	=79
16FFLL	16ee- 16cccLL	.
16F	16eee-	.
16DD-	16dd- 16bb-	.
16D-JJ	16ddd-JJ	.
16EE-LL	16cc 16aa-LL	.
16E-	16ccc	.
16EE-	16b- 16gg	.
16E-JJ	16bb-JJ	.
=80	=80	=80
8AAA-'L	8a- 8aa-	.
8AA-'J	8r	.
16CCLL	16cLL	p
16GG	16G	.
16CC	16c	.
16GGJJ	16GJJ	.
=81!|:	=81!|:	=81!|:
*>B	*>B	*>B
16CCLL	16cLL	.
16GG	16G	.
16CC	16dn	.
16GGJJ	16BnJJ	.
16CCLL	16e-LL	<
16GG	16c	.
16CC	16f	.
16GGJJ	16dJJ	.
!!LO:LB:g=original
=82	=82	=82
16CCLL	16gLL	.
16GG	16e-	.
16CC	16bn	.
16GGJJ	16gJJ	.
16CCLL	16ccLL	.
16GG	16an	.
16CC	16ddn	.
16GGJJ	16bJJ	.
=83	=83	=83
16CCLL	16ee-LL	.
16GG	16cc	.
16CC	16ff	.
16GGJJ	16ddnJJ	.
16CCLL	8ee-' 8gg'	.
16GG	.	.
16GGG	8bn' 8ddn' 8bbn'	f
16GGJJ	.	.
=84	=84	=84
16CCLL	8cc' 8ee-' 8ccc'	f
16GG	.	.
16CC	8r	.
16GGJJ	.	.
16CCLL	16cLL	p
16GG	16G	.
16CC	16c	.
16GGJJ	16GJJ	.
=85	=85	=85
16CCLL	16cLL	.
16GG	16G	.
16CC	16dn	.
16GGJJ	16BnJJ	<
16CCLL	16e-LL	.
16GG	16c	.
16CC	16f	.
16GGJJ	16dJJ	.
=86	=86	=86
16CCLL	16gLL	.
16GG	16e-	.
16CC	16bn	.
16GGJJ	16gJJ	.
16CCLL	16ccLL>	.
16GG	16an	.
16CC	16ddn	.
16GGJJ	16bJJ	.
!!LO:LB:g=original
=87	=87	=87
16CCLL	16ee-LL	.
16GG	16cc	.
16CC	16ee-	.
16GGJJ	16ccJJ	.
16DDnLL	8b-X' 8ddn'L	.
16GG	.	.
16DD	8f#' 8an' 8ff#'J	f
16DnJJ	.	.
=88	=88	=88
*>B1	*>B1	*>B1
16GGGLL	8g 8b- 8gg	f
16GG	.	.
16GGG	8r	.
16GGJJ	.	.
16CCLL	16cLL	p
16GG	16G	.
16CC	16c	.
16GGJJ	16GJJ	.
=89:|!	=89:|!	=89:|!
*>B2	*>B2	*>B2
16GGGLL	8g' 8b-' 8gg'	f
16GG	.	.
16GGG	8r	.
16GGJJ	.	.
16GGLL	16b-LL<	p
16Dn	16g	.
16GG	16b-	.
16DJJ	16gJJ	.
=90	=90	=90
*>C	*>C	*>C
16GGLL	16b-LL<	.
16Dn	16g	.
16GG	16cc	.
16DJJ	16anJJ	.
16GGLL	16ddnLL	.
16D	16b-JJ	f
16DDn	8f#' 8an' 8ff#'	.
16DJJ	.	.
=91	=91	=91
16GGLL	8g' 8b-' 8gg'	f
16Dn	.	.
16GG	8r	.
16DJJ	.	.
16GGLL	16b-LL<	p
16D	16g	.
16FFn	16b-	.
16D-JJ	16gJJ	.
!!LO:LB:g=original
=92	=92	=92
16EEnLL	16b-LL<	.
16C	16g	.
16FF	16b-	.
16D-XJJ	16gJJ	.
16EELL	16b-LL<	.
16C	16gJJ	.
16CC	8g' 8b-' 8een'	f
16CJJ	.	.
=93	=93	=93
16FFLL	8f' 8a-' 8ff'	f
16C	.	.
16FF	8r	.
16CJJ	.	.
16FFLL	16a-LL	p
16C	16f	.
16FF	16a-	.
16CJJ	16fJJ	.
=94	=94	=94
16FFLL	16a-LL	.
16C	16f	.
16FF	16b-	.
16CJJ	16gJJ	.
16FFLL	16ccLL>	.
16C	16a-JJ	.
16CC	8g' 8b-' 8een'	f
16CJJ	.	.
=95	=95	=95
16FFLL	8f' 8a-' 8ff'	f
16C	.	.
16FF	8r	.
16CJJ	.	.
16FFLL	16a-LL	p
16C	16f	.
16EE-X	16a-	.
16C-JJ	16fJJ	.
=96	=96	=96
16DDnLL	16a-LL	.
16BB-	16f	.
16EE-	16a-	.
16C-JJ	16fJJ	.
16DDLL	16a-LL	.
16BB-	16fJJ	.
16BBB-	8f 8a- 8ddn	f
16BB-JJ	.	.
=97	=97	=97
16EE-LL	8e- 8g 8ee-	f
16BB-	.	.
16EE-	8r	.
16BB-JJ	.	.
4r	16gLL	p
.	16e-	.
.	16g	.
.	16e-JJ	.
!!LO:LB:g=original
=98	=98	=98
!	!LO:TX:i:t=legato	!
2r	16gLL	.
.	16e-	.
.	16a-	.
.	16fJJ	.
.	16anLL	.
.	16f#	.
.	16b-	.
.	16gJJ	.
=99	=99	=99
2r	16cc-LL	.
.	16a-X	.
.	16ccn	.
.	16anJJ	.
.	16dd-LL	.
.	16b-	.
.	16ddn	.
.	16bnJJ	.
=100	=100	=100
2r	(16ee-LL	.
.	16cc	.
.	16ddn	.
.	16bnJJ	.
.	16ee-LL	<
.	16cc	.
.	16dd	.
.	16bJJ	.
=101	=101	=101
2r	16ee-LL	.
.	16cc	.
.	16ddn	.
.	16bnJJ	.
.	16ee-LL	p
.	16cc	.
.	16ff	.
.	16anJJ	.
=102	=102	=102
2r	16dd-XLL	.
.	16b-X	.
.	16ee-	.
.	16gJJ	.
.	16ccLL<	.
.	16a-X	.
.	16dd-	.
.	16fJJ	.
=103	=103	=103
2r	16b-LL<	.
.	16g	.
.	16cc	.
.	16enJJ	.
.	16a-LL<	.
.	16f	.
.	16b-	.
.	16dnJJ)	.
!!LO:LB:g=original
=104	=104	=104
*^	*	*
4r	[2E-	16gLL	.
.	.	16e-X	.
.	.	16dn	.
.	.	16e-JJ	.
(8d-XL	.	16gLL	.
.	.	16e-	.
8cJ	.	16a-	.
.	.	16e-JJ	.
=105	=105	=105	=105
8B-L	2E-]	16b-LL	.
.	.	16e-	.
8A-	.	16cc	.
.	.	16e-JJ	.
8G	.	16dd-LL	.
.	.	16e-	.
8FJ	.	16ddn	.
.	.	16e-JJ	.
*v	*v	*	*
=106	=106	=106
8E-L	16ee-LL	.
.	16e-	.
8D-	16g 16ee-	.
.	16e-JJ	.
8C	16a- 16ee-LL	.
.	16e-	.
8AA-J)	16a- 16cc 16ee-	.
.	16e-JJ	.
=107	=107	=107
8E-'L	16g 16b- 16ee-LL	.
.	16e-	.
8EE-'J	16g 16b- 16ee-	.
.	16e-JJ	.
(16e-LL	(16ccLL	.
16c	16ee-	.
16f	16an	.
16AnJJ	16ffJJ	.
=108	=108	=108
16d-LL	16b-LL	.
16B-	16dd-	.
16e-	16g	.
16GJJ	16ee-JJ	.
16cLL	16a-XLL<	.
16A-X	16cc	.
16d-	16f	.
16FJJ	16dd-JJ	.
=109	=109	=109
16B-LL	16gLL<	.
16G	16b-	.
16c	16en	.
16EnJJ	16ccJJ	.
16A-LL	16fLL<	.
16F	16a-	.
16B-	16dn	.
16DnJJ)	16b-JJ)	.
!!LO:LB:g=original
=110	=110	=110
16GLL	8e-	.
16E-X	.	.
16Dn	8r	.
16E-JJ	.	.
16GLL	8dd-X (8ddd-XL	.
16E-	.	.
16A-	8cc 8cccJ	.
16E-JJ	.	.
=111	=111	=111
16B-LL	8b- 8bb-L	.
16E-	.	.
16c	8a- 8aa-)	.
16E-JJ	.	.
16d-LL	8g 8gg	.
16E-	.	.
16dn	8f 8ffJ	.
16E-JJ	.	.
=112	=112	=112
16e-LL	8ee-'L	.
16E-	.	.
16e-	8a-' 8cc' 8ee-'	.
16E-JJ	.	.
16e-LL	8b-' 8dd-' 8ee-'	.
16E-	.	.
16e-	8g' 8b-' 8ee-'J	.
16E-JJ	.	.
=113	=113	=113
8A-'L	8a-' 8cc' 8ee-'	.
8AA-'J	8r	.
(8B-L	16cLL	.
.	16cc	.
8GJ	16en	.
.	16ccJJ	.
=114	=114	=114
8EnL	16gLL	.
.	16cc	.
8C	16bn	.
.	16ccJJ	.
8Dn	16b-LL	.
.	16cc	.
8EJ	16g	.
.	16ccJJ	.
=115	=115	=115
8FL	16a-LL	.
.	16cc	.
8A-J)	16f	.
.	16ccJJ	.
(16BB-LL	(8aa-L	.
16B-	.	.
16Dn	8ffJ	.
16B-JJ	.	.
!!LO:LB:g=original
=116	=116	=116
16FLL	8ddnL	.
16B-	.	.
16An	8b-	.
16B-JJ	.	.
16A-LL	8cc	.
16B-	.	.
16F	8ddJ	.
16B-JJ	.	.
=117	=117	=117
16GLL	8ee-L	.
16B-	.	.
16E-	8ggJ)	.
16B-JJ)	.	.
(8d-XL	16e-LL	.
.	16ee-	.
8B-J	16g	.
.	16ee-JJ	.
=118	=118	=118
8GL	16b-LL	.
.	16ee-	.
8E-	16ddn	.
.	16ee-JJ	.
8F	16dd-LL	.
.	16ee-	.
8GJ	16b-	.
.	16ee-JJ	.
=119	=119	=119
8A-L<	16ccLL	.
.	16ee-	.
8AA-	16e- 16cc	.
.	16ee-JJ	.
8BB-	16g 16dd-LL	.
.	16ee-	.
8CJ	16a- 16cc	.
.	16ee-JJ	.
=120	=120	=120
8D-L<	16f 16ccLL	.
.	16ee-	.
8BB-	16f 16b-	.
.	16dd-JJ	.
8E-	16e- 16a-LL<	.
.	16cc	.
8EE-J)	16d- 16g	.
.	16b-JJ	.
=121	=121	=121
8AA-'L	8c 8a-	.
8AAA-'J	8r	.
16CLL	(8b- 8bb-L	.
16c	.	.
16En	8g 8ggJ	.
16cJJ	.	.
!!LO:LB:g=original
=122	=122	=122
16GLL	8en 8eenL	.
16c	.	.
16Bn	8ccJ	.
16cJJ	.	.
16B-LL	8dn 8ddnL<	.
16c	.	.
16G	8e 8eeJ	.
16cJJ	.	.
=123	=123	=123
16A-LL	8f 8ffL	.
16c	.	.
16F	8a- 8aa-J)	.
16cJJ	.	.
*clefG2	*	*
(8a-L	16b-LL	.
.	16bb-	.
8fJ	16ddn	.
.	16bb-JJ	.
=124	=124	=124
8dnL	16ffLL	.
.	16bb-	.
8B-	16aan	.
.	16bb-JJ	.
8c	16aa-LL	.
.	16bb-	.
8dJ	16ff	.
.	16bb-JJ	.
=125	=125	=125
8e-L	16ggLL	.
.	16bb-	.
8gJ)	16ee-	.
.	16bb-JJ	.
*clefF4	*	*
16EE-LL	(8dd-X 8ddd-XL	<
16E-	.	.
16GG	8b- 8bb-J	.
16E-JJ	.	.
=126	=126	=126
16BB-LL	8g 8ggL	.
16E-	.	.
16Dn	8e- 8ee-	.
16E-JJ	.	.
16D-LL	8f 8ff	.
16E-	.	.
16BB-	8g 8ggJ	.
16E-JJ	.	.
=127	=127	=127
16CLL	8a- 8aa-)	.
16E-	.	.
16AA-	16ee- 16aa- 16cccLL	f
16A-JJ	16eee-JJ	.
16GGLL	16ee- 16bb- 16ddd-LL	.
16G	16eee-	.
16AA-	16ee- 16aa- 16ccc	.
16A-JJ	16eee-JJ	.
!!LO:LB:g=original
=128	=128	=128
16FFLL	16ee- 16cccLL	.
16F	16eee-	.
16DD-	16dd- 16bb-	.
16D-JJ	16ddd-JJ	.
16EE-LL	16cc 16aa-LL	.
16E-	16ccc	.
16EE-	16b- 16gg	.
16E-JJ	16bb-JJ	.
=129	=129	=129
8AAA-'L	8a- 8aa-	.
8AA-'J	8r	.
(16cLL	(16a-LL	.
16A-	16cc	.
16d-	16f	.
16FJJ	16dd-JJ	.
=130	=130	=130
16B-LL	16gLL	.
16G	16b-	.
16c	16en	.
16EnJJ	16ccJJ	.
16A-LL	16fLL	.
16F	16a-	.
16B-	16dn	.
16DnJJ)	16b-JJ)	.
=131	=131	=131
8E-X'	8g'	.
8EE-' 8E-'	8g' 8b-' 8ee-' 8gg'	.
*clefG2	*	*
(16e-LL	(16ggLL	.
16g	16ee-	.
16c	16aa-	.
16a-JJ	16ccJJ	.
=132	=132	=132
16dnLL	16ffLL	.
16f	16ddn	.
16Bn	16gg	.
16gJJ	16bnJJ	.
16cLL	16ee-LL	.
16e-	16cc	.
16An	16ff	.
16fJJ)	16anJJ)	.
=133	=133	=133
8B-X'	8dd-X'	.
*clefF4	*	*
8BB-' 8B-'	8b-' 8dd-' 8ff' 8bb-'	sf
(16d-XLL	(16b-LL	.
16B-	16dd-	.
16e-	16g	.
16GJJ	16ee-JJ	.
!!LO:LB:g=original
=134	=134	=134
16cLL	16a-LL	.
16A-	16cc	.
16d-	16f	.
16FJJ	16dd-JJ	.
16B-LL	16gLL	.
16G	16b-	.
16c	16en	.
16EnJJ)	16ccJJ)	.
=135	=135	=135
8F'	8a-'	.
8FF'\ 8F'\	8a-' 8cc' 8ff' 8aa-'	f
*clefG2	*	*
16fLL	(16aa-LL	.
16a-	16ff	.
16dn	16bb-	.
16b-JJ	16ddnJJ	.
=136	=136	=136
16e-LL	16ggLL	.
16g	16ee-	.
16c	16aa-	.
16a-JJ	16ccJJ	.
16dnLL	16ffLL	.
16f	16ddn	.
16Bn	16gg	.
16gJJ	16bnJJ)	.
=137	=137	=137
8c'	8ee-'L	.
*clefF4	*	*
!!!ONB: sf is probably one eighth note too late
8AAn'	8cc' 8ee-' 8ff' 8ccc'J	.
8BB-'L	8dd-X'L	sf
8B-'J	8b-X' 8dd-' 8ff' 8bb-'J	sf
=138	=138	=138
8GG'L	8dd-'L	.
8G'	8b-' 8dd-' 8ee-' 8bb-'J	sf
8AA-'	8cc'L	.
8A-'J	8a-' 8cc' 8ee-' 8aa-'J	sf
=139	=139	=139
8EE-'L	8b-'L	.
8E-'J	8g' 8b-' 8ee-' 8gg'J	sf
16D-LL	8r	p
16E-	.	.
16BB-	8e-'\ 8ee-'\	.
16GJJ	.	.
!!LO:LB:g=original
=140	=140	=140
16D-LL	8r	.
16E-	.	.
16BB-	8g' 8gg'	.
16GJJ	.	.
16D-LL	8r	.
16E-	.	.
16BB-	8b-' 8bb-'	.
16GJJ	.	.
=141	=141	=141
16D-LL	8g' 8gg'L	.
16E-	.	.
16BB-	8e-' 8ee-'J	.
16GJJ	.	.
16D-LL	8r	.
16E-	.	.
16BB-	8e-'\ 8ee-'\	.
16GJJ	.	.
=142	=142	=142
16D-LL	8r	.
16E-	.	.
16BB-	8g' 8gg'	.
16GJJ	.	.
16D-LL	8r	.
16E-	.	.
16BB-	8b-' 8bb-'	.
16GJJ	.	.
=143	=143	=143
16D-LL	8g' 8gg'L	.
16E-	.	.
16BB-	8e-' 8ee-'J	.
16GJJ	.	.
8r	16bb-LL	.
.	16eee-	.
8EE-' 8E-'	16gg	.
.	16eee-JJ	.
=144	=144	=144
8r	16bb-LL	.
.	16ddd-	.
8GG'\ 8G'\	16gg	.
.	16eee-JJ	.
8r	16bb-LL	.
.	16ddd-	.
8BB-' 8B-'	16gg	.
.	16eee-JJ	.
=145	=145	=145
8GG' 8G'L	16bb-LL	.
.	16ddd-	.
8EE-' 8E-'J	16gg	.
.	16eee-JJ	.
8r	16bb-LL	<
.	16ddd-	.
8E-' 8e-'	16gg	.
.	16eee-JJ	.
*clefG2	*	*
!!LO:LB:g=original
=146	=146	=146
8r	16bb-LL	.
.	16ddd-	.
8G' 8g'	16gg	.
.	16eee-JJ	.
8r	16bb-LL	.
.	16ddd-	.
8B-' 8b-'	16gg	.
.	16eee-JJ	.
*clefF4	*	*
=147	=147	=147
8G' 8g'L	16bb-LL	.
.	16ddd-	.
8E-' 8e-'J	16gg	.
.	16eee-JJ	.
8r	16bb-LL	.
.	16ddd-	.
8BB-' 8B-'	16gg	.
.	16eee-JJ	.
=148	=148	=148
8GG' 8G'L	16bb-LL	.
.	16ddd-	.
8EE-' 8E-'J	16gg	.
.	16eee-JJ	.
8r	16bb-LL	.
.	16ddd-	.
8EE-' 8E-'	16gg	.
.	16eee-JJ	.
=149	=149	=149
8AA-' 8A-'	8ccc'	.
(4.CCz 4.Cz	(16aa-zLL	.
.	16ggJJ	.
.	16ffLL	.
.	16ee-	.
.	16dd-	.
.	16ccJJ	.
=150	=150	=150
4DD- 4D-	16b-LL	.
.	16a-	.
.	16g	.
.	16fJJ	.
4EE- 4E-	16e-LL	.
.	16d-	.
.	16c	.
.	16B-JJ	.
=151	=151	=151
8FF' 8F')	8A-)	.
(4.CCz 4.Cz	(16cccLL	.
.	16bb-JJ	.
.	24aa-LL	.
.	24gg	.
.	24ffJ	.
.	24ee-L	.
.	24dd-	.
.	24ccJJ	.
!!LO:LB:g=original
=152	=152	=152
4DD- 4D-	16b-LL	.
.	16a-	.
.	16g	.
.	16fJJ	.
4EE- 4E-	16e-LL	.
.	16d-	.
.	16c	.
.	16B-JJ	.
=153	=153	=153
8FF' 8F')	8A-')	.
(4.CCz 4.Cz	(32eee-LLL	ff
.	32ddd-	.
.	32ccc	.
.	32bb-JJJ	.
.	24aa-LL	.
.	24gg	.
.	24ffJ	.
.	24ee-L	.
.	24dd-	.
.	24ccJJ	.
=154	=154	=154
4DD- 4D-	16b-LL	.
.	16a-	.
.	16g	.
.	16fJJ	.
4EE- 4E-)	16e-LL	.
.	16d-	.
.	16c	.
.	16B-JJ	.
=155	=155	=155
*^	*	*
(8AAA-	[2AAA-	8A-')	.
[4.AA-)	.	8r	.
.	.	(16aa-LL	p
.	.	16ff	.
.	.	16bb-	.
.	.	16ddnJJ	.
=156	=156	=156	=156
*	*	*^	*
2AA-]	2AAA-]	4.ryy	16gg-LL	<
.	.	.	16ee-	.
.	.	.	16aa-	.
.	.	.	16ccJJ	.
.	.	.	16ffLL	.
.	.	.	16dd-X)	.
.	.	[8gg-X	16gg-X	sf >
.	.	.	16b-JJ	.
=157	=157	=157	=157	=157
(8AAA-	[2AAA-	(8gg-]L	16ee-LL	.
.	.	.	16an	.
[4.AA-)	.	8ffJ)	16dd-	.
.	.	.	16b-JJ	]
.	.	4ryy	(16dd-LL	p
.	.	.	16b-	.
.	.	.	16ff-	.
.	.	.	16gnJJ	.
*	*	*v	*v	*
!!LO:LB:g=original
=158	=158	=158	=158
2AA-]	2AAA-]	16b-LL	.
.	.	16g	.
.	.	16dd-	.
.	.	16f-JJ	.
.	.	16gLL	.
.	.	16f-	.
.	.	16b-	.
.	.	16d-JJ	.
=159	=159	=159	=159
(8AAA-	[2AAA-	16a-LL	.
.	.	16e-	.
[4.AA-)	.	16cc	.
.	.	16cJJ)	.
.	.	(<16a-LL	<
.	.	16f	.
.	.	16b-	.
.	.	16dnJJ	.
=160	=160	=160	=160
*	*	*^	*
2AA-]	2AAA-]	4.ryy	16g-LL	.
.	.	.	16e-	.
.	.	.	16a-	.
.	.	.	16cJJ	.
.	.	.	16fLL	.
.	.	.	16d-X	.
.	.	[8g-Xz	16g-X	>
.	.	.	16B-JJ	.
=161	=161	=161	=161	=161
(8AAA-	[2AAA-	8g-]L	16e-LL	.
.	.	.	16An	.
[4.AA-)	.	8fJ	16d-	.
.	.	.	16B-JJ)	]
.	.	4ryy	16d-LL	p
.	.	.	16B-<	.
.	.	.	16f-	.
.	.	.	16Gn<JJ	.
*	*	*v	*v	*
=162	=162	=162	=162
16B-LL	2AAA-] 2AA-]	2ryy	.
16G	.	.	.
16d-	.	.	.
16F-JJ	.	.	.
16GLL	.	.	.
16F-	.	.	.
16B-	.	.	.
16D-JJ	.	.	.
*v	*v	*	*
=163	=163	=163
*^	*	*
*	*^	*	*
16A-LL	8AAA-/	[2AAA-	2ryy	.
16E-	.	.	.	.
16c	[4.AA-	.	.	.
(16CJJ	.	.	.	.
16d-LL	.	.	.	.
16B-	.	.	.	.
16f-	.	.	.	.
16GJJ	.	.	.	.
*	*v	*v	*	*
!!LO:LB:g=original
=164	=164	=164	=164
16B-LL	2FFF 2AA-]	2ryy	.
16G	.	.	.
16d-	.	.	.
16F-JJ	.	.	.
16GLL	.	.	.
16F-	.	.	.
16B-	.	.	.
16D-JJ)	.	.	.
*v	*v	*	*
=165	=165	=165
*^	*	*
*	*^	*	*
N(16A-LL	(>8AAA-/	[2AAA-	2ryy	.
16E-	.	.	.	.
16c	[4.AA-/)	.	.	>
16CJJ	.	.	.	.
16d-LL	.	.	.	.
16B-	.	.	.	.
16f->	.	.	.	.
16GJJ	.	.	.	.
*	*v	*v	*	*
*	*	*clefF4	*
*v	*v	*	*
=166	=166	=166
2AAA-] 2AA-]	16B-LL	.
.	16G	.
.	16d-	.
.	16F-JJ	.
.	16GLL	.
.	16F-	.
.	16B-	.
.	16D-JJN)	.
=167	=167	=167
[<2AAA-\	N(16A-LL	.
.	16E-	.
.	16c	.
.	16CJJ	.
.	16E-LL	.
.	16C	.
.	16A-	.
.	16AA-JJ	.
=168	=168	=168
2AAA-\]	16CLL	.
.	16AA-	.
.	16E-	.
.	16EE-JJ	.
.	16AA-LL	.
.	16EE-	.
.	16C	.
.	16CCJJ	.
=169	=169	=169
[<2AAA-\N)	2r	pp
=170	=170	=170
4AAA-\]	4r	.
==	==	==
*-	*-	*-
!!!RDF**kern: N = linked
!!!RDF**kern: > = above
!!!RDF**kern: < = below
!!!verovio: beamFrenchStyle
!!!LOR: Durand 1915, plates 9327/9328, Paul Dukas, ed.
!!!PED: Dukas, Paul
!!!URL-vhv: https://verovio.humdrum.org/?file=beethoven/sonatas/sonata12-4.krn
!!!URL-pdf: https://github.com/craigsapp/beethoven-piano-sonatas/blob/master/reference-edition/sonata12-4.pdf
!!!ENC: Craig Stuart Sapp
!!!END: 2005/08/24
!!!EED: Craig Stuart Sapp
!!!EEV: 2018/07/04
